!!!!SEGMENT: Gom2010-Fidelium_deus_omnium
!!!id: Gom2010
!!!AGN: Motet
!!!voices: 4
!!!COM: Nicolaus Gombert
!!!OTL: Fidelium deus omnium
**kern	**kern	**kern	**kern
*part4	*part3	*part2	*part1
*staff4	*staff3	*staff2	*staff1
*I"Bassus	*I"Tenor	*I"Altus	*I"Superius
*I'B.	*I'T.	*I'A.	*I'S.
*clefF4	*clefGv2	*clefGv2	*clefG2
*k[b-]	*k[b-]	*k[b-]	*k[b-]
*M2/1	*M2/1	*M2/1	*M2/1
*met(C|)	*met(C|)	*met(C|)	*met(C|)
=1	=1	=1	=1
!!section: Prima pars: Fidelium deus omnium
!!!OMD: Prima pars: Fidelium deus omnium
0r	0r	0d	0r
=2	=2	=2	=2
0r	0r	1B-y	0r
.	.	1c	.
=3	=3	=3	=3
0r	0r	1G	0dd
.	.	[1g	.
=4	=4	=4	=4
0r	0r	2g]	1b-y
.	.	2g	.
.	.	2f	1cc
.	.	2f	.
=5	=5	=5	=5
0r	0r	2.e	1g
.	.	4d	.
.	.	4e	[1cc
.	.	4d	.
.	.	4c	.
.	.	4B-y	.
=6	=6	=6	=6
0r	0r	2A	2cc]
.	.	2c	2cc
.	.	2d	2b-y
.	.	2e	2b-y
=7	=7	=7	=7
0D	0r	2.f	2.a
.	.	4e	4g
.	.	2f	4a
.	.	.	4g
.	.	[2d	4f
.	.	.	4e
=8	=8	=8	=8
1BB-y	0r	4d]	2d
.	.	4c	.
.	.	1B-y	2f
1C	.	.	2.e
.	.	2A	.
.	.	.	4f
=9	=9	=9	=9
1GG	0d	0B-y	4g
.	.	.	4a
.	.	.	2b-y
[1G	.	.	4g
.	.	.	4a
.	.	.	4b-y
.	.	.	4cc
=10	=10	=10	=10
2G]	1B-y	0r	2dd
2G	.	.	1b-y
2F	1c	.	.
2F	.	.	2a
=11	=11	=11	=11
1.E-X	1G	0g	2.b-y
.	.	.	4a
.	[1c	.	4g
.	.	.	4f
4D	.	.	4e
4C	.	.	4d
=12	=12	=12	=12
1C	2c]	1e	2g
.	2c	.	1e
1r	2B-y	1f	.
.	2B-y	.	2d
=13	=13	=13	=13
1r	2.A	2.c	1e
.	4G	4B-y	.
[1F	4A	4c	2f
.	4G	4B-y	.
.	4F	4A	[2a
.	4E	4G	.
=14	=14	=14	=14
2F]	2D	4F	2a]
.	.	4F	.
2F	2A	1d	2a
2E	2B-y	.	2g
2E	4A	2c	2g
.	4G	.	.
=15	=15	=15	=15
[0D	2B-y	1d	0f
.	2A	.	.
.	1B-y	2r	.
.	.	2d	.
=16	=16	=16	=16
1D]	0A	1.f	2r
.	.	.	2a
1r	.	.	[1cc
.	.	2c	.
=17	=17	=17	=17
0r	0r	1e	2cc]
.	.	.	2g
.	.	2d	1b-y
.	.	2B-y	.
=18	=18	=18	=18
0r	1A	2.c	2a
.	.	.	2f
.	.	4d	.
.	[1c	[1e	1g
=19	=19	=19	=19
0r	2c]	2e]	2a
.	2G	1d	1b-y
.	1B-y	.	.
.	.	4c	4a
.	.	4B-y	4g
=20	=20	=20	=20
0r	2A	2c	4f
.	.	.	4e
.	2F	2.d	2a
.	1G	.	2b-y
.	.	4c	.
.	.	[2e	[2g
=21	=21	=21	=21
0r	[0A	4e]	4g]
.	.	4d	4e
.	.	1d	2f
.	.	.	1e
.	.	2c#i	.
=22	=22	=22	=22
1D	1A]	1d	2r
.	.	.	2f
[1F	2r	2r	[1a
.	2A	[2c	.
=23	=23	=23	=23
2F]	1.c	2c]	2a]
2C	.	1e-i	2e
1E-X	.	.	1g
.	2G	2B-y	.
=24	=24	=24	=24
2D	1.B-y	1d	2f
2BB-y	.	.	4e
.	.	.	4d
1C	.	2.c	1e
.	2A	.	.
.	.	4B-y	.
=25	=25	=25	=25
0D	2F	2A	2d
.	2G	2.d	1g
.	1A	.	.
.	.	4c	.
.	.	2d	2f
=26	=26	=26	=26
1.E-i	1G	1B-y	2g
.	.	.	1g
.	2r	1e-i	.
2E-i	[2B-y	.	2g
=27	=27	=27	=27
1E-i	2B-]	2e-i	1g
.	2B-y	2e-i	.
2BB-y	1B-y	2d	[1f
[2B-y	.	[2d	.
=28	=28	=28	=28
2B-]	2F	2d]	1f]
2A	1f	2c	.
2B-y	.	2d	1r
2G	2e	2B-y	.
=29	=29	=29	=29
2A	1f	2c	2r
2B-y	.	1d	1f
1G	2r	.	.
.	[2B-y	4c	2e
.	.	4B-y	.
=30	=30	=30	=30
1F	2B-]	1c	1f
.	2A	.	.
1r	2B-y	1B-y	2d
.	2G	.	2e
=31	=31	=31	=31
1r	2A	2r	2f
.	2B-y	1f	1d
[1B-y	1G	.	.
.	.	2e	4c
.	.	.	4B-y
=32	=32	=32	=32
2B-]	2F	2.f	1c
2A	1f	.	.
.	.	4e	.
2B-y	.	2d	1B-y
2G	2e	4c	.
.	.	4B-y	.
=33	=33	=33	=33
2A	1f	2c	2r
2B-y	.	1d	1f
1G	2r	.	.
.	[2B-y	4c	2e
.	.	4B-y	.
=34	=34	=34	=34
1F	2B-]	1c	1f
.	2A	.	.
2r	1B-y	1d	2r
[2G	.	.	[2b-y
=35	=35	=35	=35
2G]	2c	2e	2b-]
2F	2.d	2f	2a
2G	.	2d	2b-y
.	4c	.	.
2E	[2c	[2e	2g
=36	=36	=36	=36
2F	2c]	4e]	2a
.	.	4d	.
2G	1B-y	1d	2b-y
1E	.	.	1g
.	4A	2c#i	.
.	4G	.	.
=37	=37	=37	=37
1D	1A	2d	1f
.	.	1f	.
[1F	2r	.	2.a
.	2D	4e	.
.	.	4d	4g
=38	=38	=38	=38
2F]	1F	2c	2a
2D	.	1d	2.b-y
2.E	1G	.	.
.	.	.	4a
.	.	2c	[2g
4D	.	.	.
=39	=39	=39	=39
4BB-y	1.B-y	0d	2g]
4C	.	.	.
2D	.	.	2f
1GG	.	.	2g
.	4A	.	2d
.	4G	.	.
=40	=40	=40	=40
0r	2A	1r	2f
.	2B-y	.	2g
.	1G	1d	[1b-y
=41	=41	=41	=41
0r	1B-y	2d	2b-]
.	.	2d	4a
.	.	.	4g
.	2c	2e	2a
.	2d	[2d	2b-y
=42	=42	=42	=42
1r	1e-i	2d]	2g
.	.	2c	4f
.	.	.	4e
1D	2d	2B-y	2.f
.	2D	[2A	.
.	.	.	4g
=43	=43	=43	=43
2D	1F	2A]	2a
2D	.	1d	1b-y
1E	1G	.	.
.	.	2c	4a
.	.	.	4g
=44	=44	=44	=44
1D	2B-y	1d	1f
.	2.A	.	.
2C	.	1r	1r
.	4G	.	.
[2D	[2F	.	.
=45	=45	=45	=45
2D]	2F]	0r	1a
4C	4E	.	.
4BB-y	4D	.	.
2C	2E	.	2a
2D	2F	.	2a
=46	=46	=46	=46
2GG	1G	1d	1b-y
1G	.	.	.
.	2D	2d	1a
2F	2A	2d	.
=47	=47	=47	=47
2E-X	2B-y	1e	1.g
2C	2c	.	.
2.D	1A	[1d	.
.	.	.	2f
4C	.	.	.
=48	=48	=48	=48
1AA	2r	2d]	1e
.	2A	2c	.
1D	2A	2d	2f
.	2A	[2f	[2d
=49	=49	=49	=49
0r	1B-y	4f]	4d]
.	.	4e	4e
.	.	1d	4f
.	.	.	4d
.	[1A	.	2e
.	.	2c	[2f
=50	=50	=50	=50
1D	2A]	1d	4f]
.	.	.	4e
.	2B-y	.	1g
2D	2A	2r	.
2D	[2B-y	[2d	2f
=51	=51	=51	=51
1E	2B-]	2d]	1g
.	4A	2c	.
.	4G	.	.
2D	2A	2d	2f
2C	2E	2G	[2e
=52	=52	=52	=52
2BB-y	2F	1B-y	4e]
.	.	.	4d
2GG	2G	.	1d
1AA	1E	1A	.
.	.	.	2c#i
=53	=53	=53	=53
1.A	0D	1.F	1d
.	.	.	2r
2D	.	2F	[2a
=54	=54	=54	=54
1D	1r	1A	2a]
.	.	.	2d
1G	2r	1B-y	1d
.	[2d	.	.
=55	=55	=55	=55
2F	2d]	0r	0r
2.E	2G	.	.
.	1G	.	.
4F	.	.	.
4G	.	.	.
4E	.	.	.
=56	=56	=56	=56
2F	1c	0r	1r
2E	.	.	.
2D	2B-y	.	2r
[2F	2d	.	[2a
=57	=57	=57	=57
4F]	2c	1r	2a]
4D	.	.	.
1G	2.B-y	.	2d
.	.	2r	1d
.	4G	.	.
2F#i	2A	[2d	.
=58	=58	=58	=58
1G	0B-y	2d]	0g
.	.	2G	.
1E	.	1G	.
=59	=59	=59	=59
0r	1A	0c	2f
.	.	.	2.e
.	1r	.	.
.	.	.	4f
.	.	.	4g
.	.	.	4e
=60	=60	=60	=60
0r	0r	2B-y	4f
.	.	.	4d
.	.	2.A	4f
.	.	.	4g
.	.	.	1a
.	.	4B-y	.
.	.	4c	.
.	.	4A	.
=61	=61	=61	=61
0r	1r	4B-y	2g
.	.	4c	.
.	.	1d	2f
.	[1A	.	1e
.	.	2c#i	.
=62	=62	=62	=62
1.D	2A]	0d	1f
.	2D	.	.
.	1D	.	1r
2GG	.	.	.
=63	=63	=63	=63
2GG	1.G	0r	0r
2C	.	.	.
2BB-y	.	.	.
[2AA	2F	.	.
=64	=64	=64	=64
4AA]	2.E	1r	0r
4BB-y	.	.	.
4C	.	.	.
4AA	4F	.	.
2BB-y	4G	2r	.
.	4D	.	.
2AA	2F	[2c	.
=65	=65	=65	=65
1GG	2E	2c]	1.g
.	2D	2B-y	.
1r	1D	2.A	.
.	.	.	2f
.	.	4B-y	.
=66	=66	=66	=66
0r	1r	4c	4e
.	.	4A	4f
.	.	2B-y	4g
.	.	.	4d
.	[1c	1A	4f
.	.	.	2e
.	.	.	4c
=67	=67	=67	=67
2r	2c]	2.G	0d
1G	2B-y	.	.
.	.	4F	.
.	2.A	1D	.
2F	.	.	.
.	4B-y	.	.
=68	=68	=68	=68
2.E	4c	1G	1e
.	4G	.	.
.	2.B-y	.	.
4F	.	.	.
4G	.	2r	1d
4E	4A	.	.
2F	[2A	[2d	.
=69	=69	=69	=69
1E	4A]	2d]	0r
.	4G	.	.
.	1G	2c	.
2.D	.	2d	.
.	2F	2A	.
4C	.	.	.
=70	=70	=70	=70
4AA	1E	1c	2r
4BB-y	.	.	.
4C	.	.	1a
4D	.	.	.
1E	2r	2B-y	.
.	[2G	[2c	2g
=71	=71	=71	=71
1D	2G]	2c]	2.a
.	2F	2B-y	.
.	.	.	4g
1C	1G	2c	2e
.	.	2G	[2g
=72	=72	=72	=72
2r	2D	2B-y	2g]
1D	2F	2A	2f
.	1E	1G	2.g
2C	.	.	.
.	.	.	4f
=73	=73	=73	=73
2.D	1F	2r	2d
.	.	1d	2f
4C	.	.	.
2AA	2r	.	1e
2C	[2A	2c	.
=74	=74	=74	=74
1BB-y	2A]	2d	1r
.	2G	2B-y	.
1AA	2.A	1c	2r
.	.	.	[2a
.	4G	.	.
=75	=75	=75	=75
1r	2E	1B-y	2a]
.	2G	.	2g
2r	1F	1A	2.a
[2D	.	.	.
.	.	.	4g
=76	=76	=76	=76
2D]	2.G	1r	2e
2C	.	.	2g
.	4F	.	.
2.D	2D	2r	2f
.	2F	[2d	2d
4C	.	.	.
=77	=77	=77	=77
2AA	2E	2d]	1e
2C	2.A	2c	.
1BB-y	.	2d	1d
.	4G	.	.
.	[2G	2B-y	.
=78	=78	=78	=78
2AA	2G]	2c	2r
2C	2F	4B-y	2d
.	.	4A	.
4GG	1G	1B-y	2e
4AA	.	.	.
4BB-y	.	.	2e
4C	.	.	.
=79	=79	=79	=79
1D	2r	1A	2.f
.	2D	.	.
.	.	.	4g
1r	2D	1r	2a
.	2D	.	[2b-y
=80	=80	=80	=80
2.D	2.F	2r	4b-]
.	.	.	4a
.	.	2d	1a
4E	4G	.	.
2F	2A	2d	.
2G	[2B-y	2d	2g
=81	=81	=81	=81
2D	4B-]	2.f	1a
.	4A	.	.
1F	1A	.	.
.	.	4e	.
.	.	2d	1r
2E	2G	2c	.
=82	=82	=82	=82
2D	2F	2d	1a
2C	2E	1e	.
1D	1F	.	2a
.	.	2d	2a
=83	=83	=83	=83
0AA	2E	[0e	2.cc
.	2A	.	.
.	.	.	4b-y
.	2A	.	4a
.	.	.	4g
.	2A	.	[2a
=84	=84	=84	=84
0r	2.c	1e]	2a]
.	.	.	2g
.	4B-y	.	.
.	4A	1r	2f
.	4G	.	.
.	2A	.	[2e
=85	=85	=85	=85
2.GG	2.B-y	2r	4e]
.	.	.	4d
.	.	2G	1d
4AA	4A	.	.
2BB-y	4G	2G	.
.	4F	.	.
2C	2E	2G	2c
=86	=86	=86	=86
2.GG	1D	2.B-y	2d
.	.	.	2.g
4AA	.	4c	.
2BB-y	1G	2d	.
.	.	.	4f
[2C	.	[2e-i	4e
.	.	.	4d
=87	=87	=87	=87
2C]	1G	2e-]	2c
2BB-y	.	1d	2d
1C	1G	.	2.e
.	.	2c	.
.	.	.	4c
=88	=88	=88	=88
2GG	2.B-y	1d	0g
2.G	.	.	.
.	4c	.	.
.	2d	1B-y	.
4F	.	.	.
4E	[2e-i	.	.
4D	.	.	.
=89	=89	=89	=89
2C	2e-]	1A	1r
2D	4d	.	.
.	4c	.	.
2.E-i	2e-i	1r	1g
.	[2d	.	.
4D	.	.	.
=90	=90	=90	=90
2.BB-y	2d]	1r	2f
.	4c	.	2d
4C	4B-y	.	.
1D	1A	1d	2.f
.	.	.	4g
=91	=91	=91	=91
0r	0r	2c	4a
.	.	.	4b-y
.	.	2A	1cc
.	.	2.c	.
.	.	.	4b-y
.	.	4d	4a
=92	=92	=92	=92
0r	1r	2e	2g
.	.	2d	1b-y
.	1c	1e	.
.	.	.	2a
=93	=93	=93	=93
0r	2B-y	1.d	4g
.	.	.	4f
.	2G	.	1b-y
.	2B-y	.	.
.	2c	2e	4a
.	.	.	4g
=94	=94	=94	=94
1r	4d	1f	4b-y
.	4c	.	4a
.	4B-y	.	1a
.	4A	.	.
1G	1B-y	1d	.
.	.	.	2g
=95	=95	=95	=95
2F	0A	2r	2a
2D	.	2d	2f
2.F	.	2c	2a
.	.	4A	4g
4G	.	4B-y	4f
=96	=96	=96	=96
2A	1r	4c	4e
.	.	4d	4f
2G	.	1e	1g
1A	1c	.	.
.	.	4d	2f#i
.	.	4c	.
=97	=97	=97	=97
2G	2B-y	2d	1g
2C	2G	2e	.
2BB-y	2.B-y	1d	2r
2GG	.	.	2g
.	4c	.	.
=98	=98	=98	=98
2.BB-y	2d	2r	2f
.	4c	2G	2d
4C	4B-y	.	.
2.D	2A	2F	2.f
.	2d	2D	.
4C	.	.	4g
=99	=99	=99	=99
2AA	2c	2.F	2.a
2D	2A	.	.
.	.	4G	4g
2C	1c	2A	4e
.	.	.	4c
2AA	.	2A	[2e
=100	=100	=100	=100
1BB-y	2B-y	4G	4e]
.	.	4F	4d
.	2G	4E	1d
.	.	4D	.
1AA	2A	1E	.
.	[2A	.	2c#i
=101	=101	=101	=101
2.BB-y	2A]	1D	1d
.	1G	.	.
4C	.	.	.
1D	.	1r	2r
.	2F	.	[2a
=102	=102	=102	=102
0r	1B-y	1.d	2a]
.	.	.	1g
.	1A	.	.
.	.	2c	2f
=103	=103	=103	=103
0r	2G	2B-y	2b-y
.	2c	1e-X	2.a
.	2.B-y	.	.
.	.	.	4g
.	.	2d	[2g
.	4G	.	.
=104	=104	=104	=104
2r	1A	2c	2g]
1D	.	1f	2f
.	1G	.	1g
2C	.	[2e	.
=105	=105	=105	=105
1F	0r	2e]	1a
.	.	1d	.
1E	.	.	[1g
.	.	2c#i	.
=106	=106	=106	=106
[0D	1.A	[0d	2g]
.	.	.	2f
.	.	.	2.b-y
.	[2G	.	.
.	.	.	4a
=107	=107	=107	=107
1D]	2G]	1d]	2b-y
.	2F	.	2.a
2r	1B-y	1r	.
.	.	.	4g
[2E	.	.	[2g
=108	=108	=108	=108
2E]	1A	1r	2g]
1D	.	.	2f#i
.	2G	2r	1g
2C	[2c	[2e	.
=109	=109	=109	=109
1F	2c]	2e]	1a
.	4B-y	1d	.
.	4A	.	.
1E	2B-y	.	2g
.	4A	2c	[2cc
.	4G	.	.
=110	=110	=110	=110
1D	2A	1f	2cc]
.	2F	.	2b-y
1C	2G	1e	4cc
.	.	.	4b-y
.	[2A	.	4a
.	.	.	4g
=111	=111	=111	=111
[0D	2A]	1d	2f
.	1G	.	1b-y
.	.	2r	.
.	2F	[2d	[2a
=112	=112	=112	=112
0D]	1B-y	2d]	2a]
.	.	2d	1g
.	1A	1d	.
.	.	.	2f#i
=113	=113	=113	=113
1.E	[0Gl	[0B-y	0g
2E	.	.	.
=114	=114	=114	=114
1E	0G_	1B-]	0e
2C	.	[1c	.
[2C	.	.	.
=115	=115	=115	=115
2C]	0G_	2c]	1e
2C	.	2c	.
1C	.	1c	1e
=116	=116	=116	=116
0GGl	0G]	0B-yl	0dl
==	==	==	==
*-	*-	*-	*-
!!!system-decoration: s1,s2,s3,s4
!!!RDF**kern: i = editorial accidental
!!!RDF**kern: l = terminal long
!!!ENC: Janosch Umbreit
!!!END: 2024/11/22
!!!EED: Benjamin Ory
!!!EEV: 2026/02/03
!!!YEC: Copyright 2026 Benjamin Ory, All Rights Reserved
!!!ONB: Translated from MusicXML on 2026/02/03
